X: 29515
T: Nine Points Of Roguery, The
R: reel
M: 4/4
K: Dmajor
|:D2 FD GEFE|DEFG ABAF|D2 FD GEFA|BE~E2 BE~E2|
D2 FD GEFE|DEFG ABAF|D2FD GEFG|Addc d4:|
B|:~=c3 A ~B2 GB|A3B AGFE|D2 FD GEFA|BE~E2 BE~E2|
cBAc BAGB|Adde fdAF|D2FD GEFG|Addc d3:|
|:d2 fd gefe|defg abaf|d2 fd gefa|be~e2 be~e2|
d2 fd gefe|defg abaf|defg a3g|faeg fdd2:|
B|:~=c3 A ~B2 GB|A3B AGFE|D2 FD GEFA|BE~E2 BE~E2|
cBAc BAGB|Adde fdAF|D2FD GEFG|Addc d3:|

